X:35
T:Crabs In The Skillet
R:jig
S:Kane Sisters
M:6/8
L:1/8
K:Emin
|:Bee fga|abg ~a3|fbb agf|bag fed|
B2 e fga|abg ~a3|afa d'c'b|1afd e2 d:|2afd egb||
|:~e'3 ~e'3|d'f'e' d'c'b|abc' d'c'b|abc' d'c'b|
[gB]e'e' e'f'e'|(3d'e'f' e' d'c'b|abc' d'c'b|1afd egb:|2afd eBG||
|:EGB egb|~a3 baf|~g3 fba|fed BAG|
EGB egb|~a3 baf|~g3 fba|1fed e2 E:|fed e2 B||
K:Amin
|:EAA Bcd|dec ~d3|Bee dcB|edc BAG|
E2 A Bcd|dec ~d3|dBd gfe|1dBG A2 G:|2dBG Ace||
|:~a3 ~a3|gba gfe|def gfe|def gfe|
[cE]aa aba|(3gab a gfe|def gfe|1dBG Ace:|2dBG AEC||
|:A,CE Ace|~d3 edB|~c3 Bed|BAG EDC|
A,CE Ace|~d3 edB|~c3 Bed|1BAG A2 A,:|BAG A2 E||

